X:30
T:Polska efter Lars August Bengtsson
T:(SvL Småland 30)
R:Polska
S:Lars August Bengtsson
O:Loftahammar, Småland
B:Svenska Låtar Småland
M:3/4
L:1/16
K:C
g2ge fefa g2e2|g2ge fefd e2c2|g2ge fefa g2e2|gfeg [fd]2[fd]2 [ec]4:|
|Gcec Gcec Gcec|e2f2 gagf f2e2|Gcec Gcec Gcec|e2f2 gagf f2e2|
g2ge fefa g2e2|gfeg [fd]2[fd]2 [ec]4:|

